icon-svg/aura.svg

<svg xmlns="http://www.w3.org/2000/svg" fill="#44739e" viewBox="0 0 24 24"><path d="M14.4 7.9c-2.8-2.3-5.8-4.2-8.2-5.2-2.6-1.1-4.4-1.1-5.1 0-.1.2-.2.4-.2.6v.5c-.1 1.6.7 4.6 1.5 6.9 1.5 5.2.2 7.3.2 7.3-.4.4-.6 1-.6 1.6 0 1.2.9 2.1 2 2.2.5 0 1-.2 1.3-.5 2-2 7.3-1 7.5-.9 1 .3 5 1.4 7.6 1.5.8 0 1.5-.1 1.9-.4.3-.2.5-.7.5-.7 1.7-2.6-3.1-8.5-8.4-12.9M13 19.2c-5.3-1.2-8.8-6-9.8-8.8-.3-.9-.6-1.8-.8-2.6.1.1.2.3.3.4 1.6 2.3 4.1 4.9 6.9 7.2 2.4 2 4.9 3.6 7.1 4.7-1.3-.3-2.6-.6-3.7-.9m9.1.8c-.3.5-1.6.7-4-.4-2.3-1-5.2-2.8-7.9-5.1-2.8-2.3-5.2-4.8-6.7-7-1.2-1.8-1.7-3-1.7-3.7v-.1c0-.2 0-.4.1-.5s.5-.3 1.1-.3c.7 0 1.6.2 2.9.8 2.3 1 5.2 2.8 7.9 5.1 6.3 5.1 9.1 10 8.3 11.2m-9-9.5c-2.8-2.4-5.6-3.8-6.2-3.1s1.1 3.3 3.9 5.7 5.6 3.8 6.2 3.1c.7-.7-1.1-3.3-3.9-5.7"/></svg>

<?xml version="1.0" encoding="UTF-8"?>
<svg width="33px" height="32px" viewBox="0 0 24 24" fill="#44739e" version="1.1" xmlns="http://www.w3.org/2000/svg" xmlns:xlink="http://www.w3.org/1999/xlink">
            <path d="M14.4,7.9c-2.8-2.3-5.8-4.2-8.2-5.2c-2.6-1.1-4.4-1.1-5.1,0C1,2.9,0.9,3.1,0.9,3.3c0,0,0,0,0,0.1c0,0,0,0.1,0,0.1 c0,0.1,0,0.2,0,0.3c-0.1,1.6,0.7,4.6,1.5,6.9C3.9,15.9,2.6,18,2.6,18C2.2,18.4,2,19,2,19.6c0,1.2,0.9,2.1,2,2.2 c0.5,0,1-0.2,1.3-0.5c0,0,0,0,0,0c2-2,7.3-1,7.5-0.9c1,0.3,5,1.4,7.6,1.5c0.8,0,1.5-0.1,1.9-0.4c0.3-0.2,0.5-0.7,0.5-0.7 C24.5,18.2,19.7,12.3,14.4,7.9z M13,19.2c-5.3-1.2-8.8-6-9.8-8.8C2.9,9.5,2.6,8.6,2.4,7.8c0.1,0.1,0.2,0.3,0.3,0.4 c1.6,2.3,4.1,4.9,6.9,7.2c2.4,2,4.9,3.6,7.1,4.7C15.4,19.8,14.1,19.5,13,19.2z M22.1,20c-0.3,0.5-1.6,0.7-4-0.4 c-2.3-1-5.2-2.8-7.9-5.1c-2.8-2.3-5.2-4.8-6.7-7c-1.2-1.8-1.7-3-1.7-3.7c0,0,0-0.1,0-0.1c0-0.2,0-0.4,0.1-0.5C2,3.1,2.4,2.9,3,2.9 c0.7,0,1.6,0.2,2.9,0.8c2.3,1,5.2,2.8,7.9,5.1C20.1,13.9,22.9,18.8,22.1,20z M13.1,10.5c-2.8-2.4-5.6-3.8-6.2-3.1c-0.6,0.7,1.1,3.3,3.9,5.7c2.8,2.4,5.6,3.8,6.2,3.1C17.7,15.5,15.9,12.9,13.1,10.5z"/>

</svg>
